X:438
T:High Jig, The
T:An Port Ard
R:jig
D:Fintan Vallely
Z:hn-jig-438
M:6/8
L:1/8
K:Ador
c'ba bag | efg a2b | c'ba b2a | ged e2b |
c'ba b2a | gef g2e | ged Bcd |1 ecA A2b :|2 ecA A2B ||
|: c3 d3 | eaf ged | cAB c2d | ed^c ded |
cAB c2d | eaa gaa | ged Bcd |1 ecA A2B :|2 ecA A2b ||

